!!!OTL: Möllerliddchen, S. 72
!!!id: R0062
**kern
*clefG2
*k[f#]
*G:
{8d
=1
4g
8b
4a
8g
=2
8g
8f#
8a
4g}
=3
{8e
=4
4f#
8g
8a
8g
8f#
=5
8e
8d
8e
4d}
=6
{8dd
=7
8b
8dd
8dd
8ee
8dd
8ee
=8
4.dd
4a}
=9
{8a
=10
8dd
8cc
8b
8a
8b
8g
=11
8g
8f#
8e
4d}
=12
{8d
=13
8g
8f#
8g
8a
8b
8cc
=14
4.a
4g}
==
*-
!!!minrhy: 8
!!!meters: 6/8 ]  ZZ[5
!!!cut: Möllerliddchen, S. 72
!!!reg: Luxemburg
!!!trd: D'Fraen um Kanddaaf an der aler Zeit, Luxemburg 1929
!!!rhy1: X  X_XX_X  XXXX_
!!!rhy2: X  X_XXXX  XXXX_
!!!key: R0062  08  G 6/8 ]  ZZ[5
!!!mod: HEPTATONIK IONISCH]  AMBITUS[9
!!!kad: 1-52-51
!!!akz: 1211_-72-6-5_3652_521-5_1221_
!!!fot: 'a__b__c__cs"aw_
!!!for: 'a__b__c__d__c__
!!!fok: '^a_^d_Sd_^d_^a_
!! PHRAS[AUFTAKTIG]
!!!fkt: ??
!! RUDEN, J.M.:
!! PR[36] 2K[5] 2G[16] 3K[7] 3G[5] 4A[0] 4Ü[0] 5A[0] 6K[0] 6G[0]
!! 7K[0] 7G[0] 8A[0] MEHR[0] SI[32] ABS[44] SR[20] SP[11]
!! ST[12] 2k[5] 2g[20] 3k[5] 3g[2] 4d[0] 4ü[0] 5d[0] 6k[0] 6g[0]
!! 7k[0] 7g[0] 8d[0] mehr[0] si[32] dm[0] sr[25] sp[7]
!! 1F[17] 2F[58] 3F[13] 4F[0] LF[0] 2P[0] 3P[0] 4P[0] TRI[0] DF[4] AB[48]
!! TF[0] U3K[0] U3[0] U4[0] U4Ü[0] U5[0] U6K[0] U6[0] U7K[0] U7[0]
!! N1[9] N2K[0] N2[27] N3K[0] N3[36] N4[4] N4Ü[0] N5[16] N6K[0] N6[9]
!!!n7k: 0] N7[0] O1[0] O2K[0] O2[0] O3K[0] O3[0] HÖ[0
